src/assets/filled/Grid6.svg

<svg width="24" height="24" viewBox="0 0 24 24"  xmlns="http://www.w3.org/2000/svg">
<path d="M22 7.7502H9.75V1.9502H16.19C19.83 1.9502 22 4.1202 22 7.7502Z" />
<path d="M22 16.25C21.95 19.82 19.79 21.95 16.19 21.95H9.75V16.25H22Z" />
<path d="M8.25 1.9502V21.9502H7.81C4.17 21.9502 2 19.7802 2 16.1402V7.7602C2 4.1202 4.17 1.9502 7.81 1.9502H8.25Z" />
<path d="M22 9.25H9.75V14.75H22V9.25Z" />
</svg>

<?xml version="1.0" encoding="UTF-8"?>
<svg width="24" height="24" viewBox="0 0 24 24" xmlns="http://www.w3.org/2000/svg">
 <path d="m22 7.7502h-12.25v-5.8h6.44c3.64 0 5.81 2.17 5.81 5.8z"/>
 <path d="m22 16.25c-0.05 3.57-2.21 5.7-5.81 5.7h-6.44v-5.7h12.25z"/>
 <path d="m8.25 1.9502v20h-0.44c-3.64 0-5.81-2.17-5.81-5.81v-8.38c0-3.64 2.17-5.81 5.81-5.81h0.44z"/>
 <path d="M22 9.25H9.75V14.75H22V9.25Z"/>
</svg>
